X: 41575
T: Untitled
R: reel
M: 4/4
K: Dmixolydian
|A,2 DA EGFD|C2 DG DEB,A,|G,2 DG, EG,DG,|EDB,G, B,DG,D|
A,2 DA EGFD|C2 Dc EAGE|DdDB DAGD|(3GAB AG EFD2
A,A,DA EGFD|ECDG DEB,A,|G,G,DG, EG,DG,|B,DEG FD (3A,DA,|
A,2 DA EGFD|ECDc EGAc|defg fdBG|FGAd DAD2|

